icons/lines/slider-horizontal-one.svg

<svg xmlns="http://www.w3.org/2000/svg" width="24" height="24" viewBox="0 0 24 24" fill="none" stroke="currentColor" stroke-width="2" stroke-linecap="round" stroke-linejoin="round">
  <path d="M2 19.5v-15" />
  <path d="M22 19V4" />
  <path d="M5 7.5c0-.62.02-1.17.09-1.66C5.38 3.21 6.62 2.5 10 2.5h4c3.38 0 4.62.71 4.91 3.34.07.49.09 1.04.09 1.66v9c0 .62-.02 1.17-.09 1.66-.29 2.63-1.53 3.34-4.91 3.34h-4c-3.38 0-4.62-.71-4.91-3.34-.07-.49-.09-1.04-.09-1.66z" />
</svg>

<svg xmlns="http://www.w3.org/2000/svg" width="24" height="24" viewBox="0 0 24 24" fill="none" stroke="currentColor" stroke-width="2" stroke-linecap="round" stroke-linejoin="round" >
  <path d="M5 16.5V7.5C5 6.88 5.02 6.33 5.09 5.84C5.38 3.21 6.62 2.5 10 2.5H14C17.38 2.5 18.62 3.21 18.91 5.84C18.98 6.33 19 6.88 19 7.5V16.5C19 17.12 18.98 17.67 18.91 18.16C18.62 20.79 17.38 21.5 14 21.5H10C6.62 21.5 5.38 20.79 5.09 18.16C5.02 17.67 5 17.12 5 16.5Z"/>
  <path d="M2 19.5V4.5"/>
  <path d="M22 19V4"/>
  </svg>
